X:1
T: Strathspey
C:Peter Baillie
R:Strathspey
M:4/4
Q: 128
K:A
L:1/16
|:a3e ea3 f4 d3f|e3c dcBA GB3 B4|a3e ea3 f4 d3f|e3c dcBA EA3 A4|
a3e ea3 f4 d3f|e3c dcBA GB3 B4|a3e ea3 f4 d3f|e3c dcBA EA3 A3c|
((3A2c2A2) F3A E4 C3F|E3A dcBA Gd3 d3d|((3A2c2A2) F3A E4 C3f|e3c dcBA EA3 A3c|
((3A2c2A2) F3A E4 C3F|E3A dcBA Gd3 d3d|((3c2d2e2) ((3c2d2e2) ((3d2e2f2) ((3d2e2f2) |((3e2d2c2) ((3B2A2G2) ((3A2c2d2) ((3e2f2g2):|
